X:1
T:[ID 1-62]
T:[ID 1-62]
T:Bezeichnung standardisiert: Tantz Tantz 20.
T:Urheber unbekannt Datum in der hier transkribierten schriftlichen Quelle: 1775
C:Urheber unbekannt
C:Datum in der hier transkribierten schriftlichen Quelle: 1775
L:1/8
M:4/4
K:D
V:1 treble 
V:1
 F2 AG F2 E2 | F2 F2 F4 | F2 AG F2 E2 | F2 F2 F4 |"^O)" G2 F2 F4 | E2 D2 D4 |"^O)" G2 F2 F4 | %7
 E2 D2 D4 | D2 F2 EFGE | F2 F2 F4 :: d2 c2 Bcde | f2 c2 c4 | d2 c2 Bcde | f4 z2 f2 | e2 fg c2 f2 | %15
 e2 fg c2 B2 | A2 GF EDCB, | C4 z2 F2 | G2 G/A/B A2 A/B/c | B2 B/c/d B2 A2 | G2 F2 F4 | E2 D2 D4 | %22
 G2 F2 F4 | E2 D2 D4 | D2 EFGF F2 | F2 F2 F4 :| %26

